X:230
T: Sligo Lassies
M: 6/8
L: 1/8
S: Luke O'Malley vol 1
Z: B.Black
R: jig
K: Edor
D | EBB BAG | FAA AFD | EBB BdB | AFD E2 D |
EBB BAG | FAA ABc | dcd BdB | AFD E2 :|
D | Eee efg | fef dBA | Bee efg | fef d2 A |
Bee efg | fef dBA | BAB GAB | AFD E2 :|
